X:1
T:Tom Bolyn
M:3/8
L:1/8
K:C
 C2 E| G2 G| E2 D| C3| z2 E| G2 G| EGG| AAE| G3| z2 E| G3/2 G/2 G|\
 E2 G| GGA| d2 d/2d/2| dcc| AGE| E2 D| C3|

